src/assets/icons/receipt.svg

<svg width="14" height="14" viewBox="0 0 14 14" fill="none" xmlns="http://www.w3.org/2000/svg">
<g id="receipt">
<g clip-path="url(#clip0_295_4738)">
<path id="Vector" fill-rule="evenodd" clip-rule="evenodd" d="M4.26789 2.54661L5.39238 1.42212L6.51688 2.54661C6.7837 2.81343 7.2163 2.81343 7.48311 2.54661L8.6076 1.42212L9.7321 2.54661C9.99892 2.81343 10.4315 2.81343 10.6983 2.54661L11.22 2.02498V11.975L10.6983 11.4534C10.4315 11.1866 9.99891 11.1866 9.7321 11.4534L8.6076 12.5779L7.48311 11.4534C7.21629 11.1866 6.78369 11.1866 6.51688 11.4534L5.39238 12.5779L4.26789 11.4534C4.00107 11.1866 3.56847 11.1866 3.30165 11.4534L2.78002 11.975V2.02498L3.30165 2.54661C3.56848 2.81343 4.00108 2.81343 4.26789 2.54661ZM5.8755 0.200115C5.60869 -0.0667037 5.17609 -0.066706 4.90926 0.200115L3.78477 1.32461L2.74066 0.280495C2.31025 -0.149921 1.57431 0.154922 1.57431 0.763615V13.2364C1.57431 13.8451 2.31025 14.1499 2.74066 13.7195L3.78477 12.6754L4.90926 13.7999C5.17608 14.0667 5.60868 14.0667 5.8755 13.7999L6.99999 12.6754L8.12449 13.7999C8.3913 14.0667 8.8239 14.0667 9.09072 13.7999L10.2152 12.6754L11.2593 13.7195C11.6897 14.1499 12.4257 13.8451 12.4257 13.2364V0.763615C12.4257 0.15492 11.6897 -0.14992 11.2593 0.280495L10.2152 1.32461L9.09072 0.200115C8.82391 -0.0667037 8.39131 -0.066706 8.12449 0.200115L6.99999 1.32461L5.8755 0.200115ZM5.39238 3.98576C5.05944 3.98576 4.78953 4.25567 4.78953 4.58862C4.78953 4.92156 5.05944 5.19147 5.39238 5.19147H8.6076C8.94055 5.19147 9.21046 4.92156 9.21046 4.58862C9.21046 4.25567 8.94055 3.98576 8.6076 3.98576H5.39238ZM4.78953 7.00003C4.78953 6.66709 5.05944 6.39718 5.39238 6.39718H8.6076C8.94055 6.39718 9.21046 6.66709 9.21046 7.00003C9.21046 7.33298 8.94055 7.60289 8.6076 7.60289H5.39238C5.05944 7.60289 4.78953 7.33298 4.78953 7.00003ZM5.39238 8.80859C5.05944 8.80859 4.78953 9.0785 4.78953 9.41145C4.78953 9.74439 5.05944 10.0143 5.39238 10.0143H8.6076C8.94055 10.0143 9.21046 9.74439 9.21046 9.41145C9.21046 9.0785 8.94055 8.80859 8.6076 8.80859H5.39238Z" fill="black"/>
</g>
</g>
<defs>
<clipPath id="clip0_295_4738">
<rect width="14" height="14" fill="white"/>
</clipPath>
</defs>
</svg>

<svg xmlns="http://www.w3.org/2000/svg" fill="none" viewBox="0 0 14 14"><g clip-path="url(#a)"><path fill="#000" fill-rule="evenodd" d="m4.268 2.547 1.124-1.125 1.125 1.125c.267.266.7.266.966 0l1.125-1.125 1.124 1.125c.267.266.7.266.966 0l.522-.522v9.95l-.522-.522a.683.683 0 0 0-.966 0l-1.124 1.125-1.125-1.125a.683.683 0 0 0-.966 0l-1.125 1.125-1.124-1.125a.683.683 0 0 0-.966 0l-.522.522v-9.95l.522.522c.266.266.7.266.966 0M5.876.2a.683.683 0 0 0-.967 0L3.785 1.325 2.74.28a.683.683 0 0 0-1.167.484v12.472c0 .61.736.914 1.167.483l1.044-1.044L4.909 13.8c.267.267.7.267.966 0L7 12.675 8.124 13.8c.267.267.7.267.967 0l1.124-1.125 1.044 1.044a.683.683 0 0 0 1.167-.483V.764A.683.683 0 0 0 11.259.28l-1.044 1.045L9.091.2a.683.683 0 0 0-.967 0L7 1.325zm-.484 3.786a.603.603 0 0 0 0 1.205h3.216a.603.603 0 1 0 0-1.205zM4.79 7c0-.333.27-.603.602-.603h3.216a.603.603 0 1 1 0 1.206H5.392A.603.603 0 0 1 4.79 7m.602 1.809a.603.603 0 0 0 0 1.205h3.216a.603.603 0 1 0 0-1.205z" clip-rule="evenodd"/></g><defs><clipPath id="a"><path fill="#fff" d="M0 0h14v14H0z"/></clipPath></defs></svg>
